assets/icons/qvision/games.svg

<svg xmlns="http://www.w3.org/2000/svg" height="24" viewBox="0 0 24 24" width="24"><path d="M0 0h24v24H0z" fill="none"/><path d="M15 7.5V2H9v5.5l3 3 3-3zM7.5 9H2v6h5.5l3-3-3-3zM9 16.5V22h6v-5.5l-3-3-3 3zM16.5 9l-3 3 3 3H22V9h-5.5z"/></svg>

<svg width="24" height="24" viewBox="0 0 24 24" fill="none" xmlns="http://www.w3.org/2000/svg">
<g clip-path="url(#clip0_147_1473)">
<path d="M15 7.5V2H9V7.5L12 10.5L15 7.5ZM7.5 9H2V15H7.5L10.5 12L7.5 9ZM9 16.5V22H15V16.5L12 13.5L9 16.5ZM16.5 9L13.5 12L16.5 15H22V9H16.5Z" fill="#323232"/>
</g>
<defs>
<clipPath id="clip0_147_1473">
<rect width="24" height="24" fill="white"/>
</clipPath>
</defs>
</svg>
